X:1
T:Cornelius Curtin's Big Balloon
L:1/8
M:6/8
I:linebreak $
K:Emin
V:1 treble 
V:1
 d |: BGE EGE | BGE EdB | AFD DED | DFA ded | BGE EDE | BAB d2 e | fdB AGF |1$ GEE E2 d :|2 %9
 GEE E3 || eBe gfe | bge efe | dAd fed | afd dgf | eBe gfe |$ bge edc | BGE AcA | BGE E3 | %18
 eBe gfe | bge efe | dAd fef | aga def |$ g2 b aga | bge gfg | edB BAF | GEE E3 || %26
